X: 472
T: Sumarsko
O: Bulgaria
W:transcribed by Jutta Weber-Karn
W:http://www.folkloretanznoten.de/
W:converted to abc notation by Seymour Shlien
M: 7/8
L: 1/16
K: D
Q: 1/4=120
%%MIDI program 21  % Accordian
%%MIDI bassprog 24 & Acoustic Guitar
%%MIDI chordprog 24 & Acoustic Guitar
%%MIDI gchord fffc2c2
"Em" d2e2e2 eABc defg                |"A" a2a2g2 "D" fgfe f2d2         |\
L:1/8
"Em"dee e2 fg                        |"A"ffe "D" d2 z2::
"D" [FA][FA] [DF] "Em"[EG]2 [FA][GB] |"A"[FA][FA][EG] "D"[DF]2 [DF][EG]|\
"Bm" [FA][FA] [DF] "Em"[EG]2 [FA][GB]|"A"[FA][FA][EG] "D"[DF]4 z2::
"D" [FA][FA] [DF] "Em"[EG]2 [FA][GB] |"A"[Ac][Ac][GB] "D"[FA]2 [FA][DF]|\
"Bm" [FA][FA] [DF] "Em"[EG]2 [FA][GB]|"A"[FA][FA][EG] "D"[DF]4 z2      :|



